icons/clipboard-plus.svg

<svg xmlns="http://www.w3.org/2000/svg" width="24" height="24" viewBox="0 0 24 24">
  <path d="M16,1 C16.5128358,1 16.9355072,1.38604019 16.9932723,1.88337887 L17,2 L17,3 L19,3 C20.1045695,3 21,3.8954305 21,5 L21,21 C21,22.1045695 20.1045695,23 19,23 L5,23 C3.8954305,23 3,22.1045695 3,21 L3,5 C3,3.8954305 3.8954305,3 5,3 L7,3 L7,2 C7,1.48716416 7.38604019,1.06449284 7.88337887,1.00672773 L8,1 L16,1 Z M12,10 C11.4477153,10 11,10.4477153 11,11 L11,11 L10.999,13 L9,13 L8.88337887,13.0067277 C8.38604019,13.0644928 8,13.4871642 8,14 C8,14.5522847 8.44771525,15 9,15 L9,15 L10.999,15 L11,17 L11.0067277,17.1166211 C11.0644928,17.6139598 11.4871642,18 12,18 C12.5522847,18 13,17.5522847 13,17 L13,17 L12.999,15 L15,15 L15.1166211,14.9932723 C15.6139598,14.9355072 16,14.5128358 16,14 C16,13.4477153 15.5522847,13 15,13 L15,13 L12.999,13 L13,11 L12.9932723,10.8833789 C12.9355072,10.3860402 12.5128358,10 12,10 Z M15,3 L9,3 L9,5 L15,5 L15,3 Z"/>
</svg>

<svg xmlns="http://www.w3.org/2000/svg" viewBox="0 0 24 24">
  <path d="M16 1a1 1 0 0 1 1 .88V3h2a2 2 0 0 1 2 2v16a2 2 0 0 1-2 2H5a2 2 0 0 1-2-2V5c0-1.1.9-2 2-2h2V2a1 1 0 0 1 .88-1H16zm-4 9a1 1 0 0 0-1 1v2H8.88A1 1 0 0 0 9 15h2v2.12a1 1 0 0 0 2-.12v-2h2.12a1 1 0 0 0-.12-2h-2v-2.12a1 1 0 0 0-1-.88zm3-7H9v2h6V3z"/>
</svg>
